svg/shape/heart_line.svg

<?xml version="1.0" encoding="UTF-8"?>
<svg width="24px" height="24px" viewBox="0 0 24 24" version="1.1" xmlns="http://www.w3.org/2000/svg" xmlns:xlink="http://www.w3.org/1999/xlink">
    <title>heart_line</title>
    <g id="页面-1" stroke="none" stroke-width="1" fill="none" fill-rule="evenodd">
        <g id="heart_line">
             <path d="M24,0 L24,24 L0,24 L0,0 L24,0 Z M12.5934901,23.257841 L12.5819402,23.2595131 L12.5108777,23.2950439 L12.4918791,23.2987469 L12.4918791,23.2987469 L12.4767152,23.2950439 L12.4056548,23.2595131 C12.3958229,23.2563662 12.3870493,23.2590235 12.3821421,23.2649074 L12.3780323,23.275831 L12.360941,23.7031097 L12.3658947,23.7234994 L12.3769048,23.7357139 L12.4804777,23.8096931 L12.4953491,23.8136134 L12.4953491,23.8136134 L12.5071152,23.8096931 L12.6106902,23.7357139 L12.6232938,23.7196733 L12.6232938,23.7196733 L12.6266527,23.7031097 L12.609561,23.275831 C12.6075724,23.2657013 12.6010112,23.2592993 12.5934901,23.257841 L12.5934901,23.257841 Z M12.8583906,23.1452862 L12.8445485,23.1473072 L12.6598443,23.2396597 L12.6498822,23.2499052 L12.6498822,23.2499052 L12.6471943,23.2611114 L12.6650943,23.6906389 L12.6699349,23.7034178 L12.6699349,23.7034178 L12.678386,23.7104931 L12.8793402,23.8032389 C12.8914285,23.8068999 12.9022333,23.8029875 12.9078286,23.7952264 L12.9118235,23.7811639 L12.8776777,23.1665331 C12.8752882,23.1545897 12.8674102,23.1470016 12.8583906,23.1452862 L12.8583906,23.1452862 Z M12.1430473,23.1473072 C12.1332178,23.1423925 12.1221763,23.1452606 12.1156365,23.1525954 L12.1099173,23.1665331 L12.0757714,23.7811639 C12.0751323,23.7926639 12.0828099,23.8018602 12.0926481,23.8045676 L12.108256,23.8032389 L12.3092106,23.7104931 L12.3186497,23.7024347 L12.3186497,23.7024347 L12.3225043,23.6906389 L12.340401,23.2611114 L12.337245,23.2485176 L12.337245,23.2485176 L12.3277531,23.2396597 L12.1430473,23.1473072 Z" id="MingCute" fill-rule="nonzero"></path>
            <path d="M18.4938,3.80125 C20.5893,5.02215 22.0628,7.50088 21.9979,10.3931 C21.917,14.0022 19.1073,17.1867 14.3194,20.0308 C13.6095,20.4525 12.8612,21 12.0000003,21 C11.1551,21 10.3746,20.4431 9.68057,20.0308 C4.89274,17.1867 2.083,14.0022 2.00206,10.3931 C1.9372,7.50088 3.41065,5.02215 5.50615,3.80125 C7.46612,2.65932 9.92814,2.65319 12.0000003,4.33847 C14.0719,2.65319 16.5339,2.65932 18.4938,3.80125 Z M17.487,5.52934 C16.0933,4.71733 14.3513,4.74621 12.8427,6.27162 C12.3801,6.73937 11.6199,6.73937 11.1573,6.27162 C9.64871,4.74621 7.90669,4.71733 6.51299,5.52934 C5.06856,6.3709 3.95242,8.15746 4.00156,10.3482 C4.05789,12.8602 6.04114,15.5426 10.702,18.3113 C11.1099,18.5536 11.5362,18.8651 11.9999979,18.9939 C12.4638,18.8651 12.8901,18.5536 13.298,18.3113 C17.9589,15.5426 19.9421,12.8602 19.9984,10.3482 C20.0476,8.15746 18.9314,6.3709 17.487,5.52934 Z" id="形状" fill="#09244B"></path>
        </g>
    </g>
</svg>

<svg xmlns="http://www.w3.org/2000/svg" width="24" height="24"><g fill="none" fill-rule="evenodd"><path d="M24 0v24H0V0h24ZM12.593 23.258l-.011.002-.071.035-.02.004-.014-.004-.071-.035c-.01-.004-.019-.001-.024.005l-.004.01-.017.428.005.02.01.013.104.074.015.004.012-.004.104-.074.012-.016.004-.017-.017-.427c-.002-.01-.009-.017-.017-.018Zm.265-.113-.013.002-.185.093-.01.01-.003.011.018.43.005.012.008.007.201.093c.012.004.023 0 .029-.008l.004-.014-.034-.614c-.003-.012-.01-.02-.02-.022Zm-.715.002a.023.023 0 0 0-.027.006l-.006.014-.034.614c0 .012.007.02.017.024l.015-.002.201-.093.01-.008.004-.011.017-.43-.003-.012-.01-.01-.184-.092Z"/><path fill="#09244B" d="M18.494 3.801c2.095 1.221 3.569 3.7 3.504 6.592-.081 3.61-2.89 6.794-7.679 9.638-.71.422-1.458.969-2.319.969-.845 0-1.625-.557-2.32-.97-4.787-2.843-7.597-6.028-7.678-9.637-.065-2.892 1.409-5.37 3.504-6.592C7.466 2.66 9.928 2.653 12 4.338c2.072-1.685 4.534-1.679 6.494-.537ZM17.487 5.53c-1.394-.812-3.136-.783-4.644.743a1.188 1.188 0 0 1-1.686 0c-1.508-1.526-3.25-1.555-4.644-.743-1.444.842-2.56 2.628-2.511 4.82.056 2.511 2.04 5.194 6.7 7.962.408.243.834.554 1.298.683.464-.129.89-.44 1.298-.683 4.66-2.768 6.644-5.45 6.7-7.963.05-2.19-1.067-3.977-2.511-4.819Z"/></g></svg>
